X:1
T:Ring Out, Sweet Easter Bells
T:Ring Out, Sweet Easter Bells
T:Composer Unknown
T:John Anketell, 1877
T:Public Domain Courtesy of the Cyber Hymnal™
C:Composer Unknown
Z:Public Domain
Z:Courtesy of the Cyber Hymnal™
%%score ( 1 2 ) ( 3 4 )
L:1/8
Q:1/4=106
M:4/4
K:C
V:1 treble 
V:2 treble 
V:3 bass 
V:4 bass 
V:1
 ([CE][DF]) | [EG]2 [EG]2 [EG]2 [EG]2 | [FA]3 [EG] [Ec]3 [EG] | [FA]2 [EG]2 [Ec]2 [CE]2 | %4
w: 1.~Ring *|out, sweet East- er|bells, ring out, The|world to life is|
w: 2.~Once *|more the sea its|wave di- vides, That|we our Lord may|
w: 3.~The *|Ro- man guard in|vain shall keep His|dark and si- lent|
w: 4.~Then *|ring, sweet bells, the|joy on earth In|East- er hymns to|
 [CE]4 [B,D]2 ([CE][DF]) | [EG]2 [EG]2 [EG]2 [EG]2 | [FA]3 [EG] [Ec]2 (Bc) | [Gd]2 G2 [Gc]2 [GB]2 | %8
w: wak- ing, And *|heav’n- ly hosts in|tri- umph sound, The *|joy of man par-|
w: fol- low; Then *|o’er the foe in|tri- umph rides, The *|hosts of sin to|
w: pri- son; No *|more sad Mag- da-|lene shall weep, For *|Christ the Lord is|
w: Heav- en, And *|tell the new, im-|mor- tal birth To *|man by Je- sus|
 [^FA]4 !fermata!G2 G2 | [Ec]3 [DB] [Ec]2 E2 | [FA]3 [FG] [FA]2 [FA]2 | [^Fd]2 [Fc]2 [FB]2 [FA]2 | %12
w: tak- ing. For|He, who died our|souls to save, The|Lord is ris- en|
w: swal- low; For|He, who saved us|from our doom, The|Lord is ris- en|
w: ris- en; The|Sav- ior, who for|sin- ners bled, The|Lord is ris- en|
w: giv- en; For|our dear Lord is|ris’n in- deed, And|lives on high to|
 G3 [DA] [DG]2 ||"^Refrain" [EG][EG] | [FA]3 [EG] [DF]2 [FB]2 | c4 !fermata![Ec]2 |] %16
w: from the grave.||||
w: from the tomb.||||
w: from the dead.|Al- le-|lu- ia! Al- le-|lu- ia!|
w: in- ter- cede.||||
V:2
 x2 | x8 | x8 | x8 | x8 | x8 | x6 D2 | x2 G2 x4 | x4 G2 G2 | x6 E2 | x8 | x8 | G3 x3 || x2 | x8 | %15
 (F2 GF) x2 |] %16
V:3
 [C,G,]2 | [C,C]2 G,2 E,2 G,2 | [C,C]3 [C,C] [C,G,]3 [C,G,] | [C,C]2 [C,G,]2 [A,,A,]2 [^F,,A,]2 | %4
 [G,,G,]4 [G,,G,]2 [C,G,]2 | [C,C]2 G,2 E,2 G,2 | [C,C]3 [C,C] [C,G,]2 (G,B,) | %7
 [D,B,]2 [D,B,]2 [D,E]2 [D,D]2 | [D,C]4 !fermata![G,B,]2 [G,B,]2 | [C,C]3 [C,G,] [C,G,]2 [C,C]2 | %10
 [F,C]3 [F,C] [F,C]2 [F,C]2 | [D,D]2 [D,A,]2 [D,D]2 [D,C]2 | [G,B,]3 [G,C] [G,B,]2 || G,G, | %14
 G,3 G, [G,,G,]2 [G,D]2 | [G,,G,]4 !fermata![C,G,]2 |] %16
V:4
 x2 | x2 G,2 E,2 x2 | x8 | x8 | x8 | x2 G,2 E,2 G,2 | x6 D,2 | x8 | x8 | x8 | x8 | x8 | x6 || %13
 G,G, | G,3 G, x4 | x6 |] %16

